docs/images/icons/telegram2.svg

<svg width="37" height="37" fill="none" xmlns="http://www.w3.org/2000/svg"><defs><clipPath id="a"><path fill="#fff" fill-opacity="0" d="M0 0h37v37H0z"/></clipPath></defs><path d="M0 0h37v37H0z"/><g clip-path="url(#a)" fill="#FFF"><path d="M31.58 5.41C28.08 1.92 23.44 0 18.5 0 13.55 0 8.91 1.92 5.41 5.41 1.92 8.91 0 13.55 0 18.5c0 4.94 1.92 9.58 5.41 13.08C8.91 35.07 13.55 37 18.5 37c4.94 0 9.58-1.93 13.08-5.42C35.07 28.08 37 23.44 37 18.5c0-4.95-1.93-9.59-5.42-13.09ZM18.5 35.83c-9.56 0-17.34-7.78-17.34-17.33 0-9.56 7.78-17.34 17.34-17.34 9.55 0 17.33 7.78 17.33 17.34 0 9.55-7.78 17.33-17.33 17.33Z"/><path d="M28.97 7.12a.602.602 0 0 0-.62-.05L5.76 18.76a.586.586 0 0 0 .01 1.04l5.91 2.95v5.85c0 .16.05.31.16.42.11.12.27.19.42.19.1 0 .2-.03.29-.08l6.76-3.75 5.17 2.21c.11.05.23.07.35.05a.6.6 0 0 0 .47-.46l1.31-6.55a.59.59 0 0 0-.57-.7c-.28 0-.52.2-.58.47l-1.16 5.84-4.8-2.05a.575.575 0 0 0-.51.03l-6.14 3.41v-5.24c0-.22-.13-.42-.33-.52l-5.2-2.6 20.49-10.6-1.78 8.89c-.07.36.21.7.57.7.28 0 .52-.2.58-.47L29.19 7.7a.573.573 0 0 0-.22-.58Z"/><path d="M25.19 11.9a.59.59 0 0 0-.77-.13L14.29 18a.57.57 0 0 0-.27.5v6.23c0 .27.18.5.45.57.04.01.09.01.13.01.22 0 .42-.12.52-.32l2.3-4.59 7.72-7.72c.21-.21.23-.55.05-.78Zm-8.67 7.74c-.04.04-.08.1-.11.15l-1.23 2.46v-3.43l5.62-3.45-4.28 4.27Z"/></g></svg>

<svg width="37.000000" height="37.000000" viewBox="0 0 37 37" fill="none" xmlns="http://www.w3.org/2000/svg" xmlns:xlink="http://www.w3.org/1999/xlink">
	<desc>
			Created with Pixso.
	</desc>
	<defs>
		<clipPath id="clip339_443">
			<rect id="telegram-svgrepo-com (1) 1" width="37.000000" height="37.000000" fill="white" fill-opacity="0"/>
		</clipPath>
	</defs>
	<rect id="telegram-svgrepo-com (1) 1" width="37.000000" height="37.000000" fill="#FFFFFF" fill-opacity="0"/>
	<g clip-path="url(#clip339_443)">
		<path id="Vector" d="M31.58 5.41C28.08 1.92 23.44 0 18.5 0C13.55 0 8.91 1.92 5.41 5.41C1.92 8.91 0 13.55 0 18.5C0 23.44 1.92 28.08 5.41 31.58C8.91 35.07 13.55 37 18.5 37C23.44 37 28.08 35.07 31.58 31.58C35.07 28.08 37 23.44 37 18.5C37 13.55 35.07 8.91 31.58 5.41ZM18.5 35.83C8.94 35.83 1.16 28.05 1.16 18.5C1.16 8.94 8.94 1.16 18.5 1.16C28.05 1.16 35.83 8.94 35.83 18.5C35.83 28.05 28.05 35.83 18.5 35.83Z" fill="#FFFFFF" fill-opacity="1.000000" fill-rule="nonzero"/>
		<path id="Vector" d="M28.97 7.12C28.79 6.99 28.55 6.97 28.35 7.07L5.76 18.76C5.57 18.86 5.45 19.06 5.45 19.28C5.45 19.5 5.57 19.7 5.77 19.8L11.68 22.75L11.68 28.6C11.68 28.76 11.73 28.91 11.84 29.02C11.95 29.14 12.11 29.21 12.26 29.21C12.36 29.21 12.46 29.18 12.55 29.13L19.31 25.38L24.48 27.59C24.59 27.64 24.71 27.66 24.83 27.64C25.07 27.59 25.25 27.41 25.3 27.18L26.61 20.63C26.68 20.27 26.4 19.93 26.04 19.93C25.76 19.93 25.52 20.13 25.46 20.4L24.3 26.24L19.5 24.19C19.34 24.12 19.15 24.13 18.99 24.22L12.85 27.63L12.85 22.39C12.85 22.17 12.72 21.97 12.52 21.87L7.32 19.27L27.81 8.67L26.03 17.56C25.96 17.92 26.24 18.26 26.6 18.26C26.88 18.26 27.12 18.06 27.18 17.79L29.19 7.7C29.24 7.48 29.15 7.26 28.97 7.12Z" fill="#FFFFFF" fill-opacity="1.000000" fill-rule="nonzero"/>
		<path id="Vector" d="M25.19 11.9C25 11.67 24.67 11.61 24.42 11.77L14.29 18C14.12 18.1 14.02 18.29 14.02 18.5L14.02 24.73C14.02 25 14.2 25.23 14.47 25.3C14.51 25.31 14.56 25.31 14.6 25.31C14.82 25.31 15.02 25.19 15.12 24.99L17.42 20.4L25.14 12.68C25.35 12.47 25.37 12.13 25.19 11.9ZM16.52 19.64C16.48 19.68 16.44 19.74 16.41 19.79L15.18 22.25L15.18 18.82L20.8 15.37L16.52 19.64Z" fill="#FFFFFF" fill-opacity="1.000000" fill-rule="nonzero"/>
	</g>
</svg>
